X: 766
T: Rolling on the Ryegrass   #2
R: reel
%S: s:6 b:24(4+4+4+4+4+4)
B: Francis O'Neill: "The Dance Music of Ireland" (1907) #766
Z: Frank Nordberg - http://www.musicaviva.com
F: http://www.musicaviva.com/abc/tunes/ireland/oneill-1001/0766/oneill-1001-0766-1.abc
%m: Tn = (3n/o/n/
%m: Tn2 = (3n/o/n/ m/n/
M: C|
L: 1/8
K: Dmix
"^A"[|] dB !segno!\
|: {F}A2(AF) DFAF | G(F{F/E/}E)F GBdB | BAFA DFAd | BGFG [1 TE2D2 :|[2 E2HD2 |]
"^B"\
[| ABde f2(fa) | gefd edBd | ABde [1 (Tfe)fg | afdf e2d2 :|[2 faab | afdf e2d2 ||]
"^C"\
[| A2(Ac) BAGF | GABc dBAG | FGAc BGGB | AFDF TE2D2 ||
|| FAAc BAGF | GABc dBAG | FGAB defb | afdf e2!segno!d2 |] 
